src/components/WarCrimes/icons/crimes/child-soldiers.svg

<svg xmlns="http://www.w3.org/2000/svg" width="148" height="130" viewBox="0 0 148 130">
  <g fill="none" fill-rule="evenodd">
    <g transform="translate(86 75)">
      <path fill="#FFFFFF" d="M16.1179777 9.66945596C15.8836973 12.5921503 17.6523573 15.2136269 20.2776675 16.1882383L19.9857444 10.0470466C18.457072 9.98549223 17.1812283 9.8603886 16.1179777 9.66945596zM22.356799 16.5886269C22.7899752 16.5997409 23.2154467 16.5675389 23.6280769 16.4951554L24.599727 14.2843264 24.7592432 13.9226943 25.1550372 13.9446373 27.6085608 14.0817098C28.3356576 13.1375907 28.8090695 11.9817358 28.9140819 10.7067617 28.93634 10.4368912 28.9394789 10.1701554 28.9283499 9.9065544 27.006737 9.99546632 25.0289082 10.0721244 23.1598015 10.0892228L22.356799 16.5886269z"/>
      <path fill="#FFFFFF" d="M21.7583995 16.7738601L21.7863648 16.5475907 22.6544293 9.52212435C24.620273 9.51585492 26.7347891 9.43805699 28.8795533 9.33917098 29.2228412 9.32321244 29.5666998 9.30725389 29.911129 9.29044041 30.3819727-1.19119171 20.3881017-1.56564767 17.5136725 2.11935233 15.1671588 5.12782383 15.3706203 8.93080311 15.3706203 8.93080311 15.6291563 8.99435233 15.90567 9.04992228 16.1901737 9.10178756 17.4312035 9.32748705 18.9042308 9.44746114 20.531067 9.49562176L20.8580893 16.3726166 20.876067 16.7516321C20.8732134 17.3372539 21.7552605 17.3597668 21.7583995 16.7738601zM35.1979901 20.8655181L35.1948511 20.2716321 35.1945658 20.2015285 34.9554342 20.2026684C34.8461414 20.2798964 34.7382754 20.3534197 34.6315509 20.4240933 34.5433747 20.5876684 34.4403598 20.7247409 34.3205087 20.8347409 34.0602605 21.2023575 34.2868362 23.1256477 34.8275931 25.5034715 36.4869603 24.7770725 38.2071092 23.6363212 39.9423821 22.0011399 40.3498759 21.6192746 40.5850124 21.1231347 40.6463648 20.6093264L35.7923945 20.8381606 35.1979901 20.8655181zM27.4424814 24.0107772C27.7780645 24.3393523 28.0366005 24.75 28.1772829 25.2167876 28.286005 25.5775648 28.3213896 25.948886 28.286005 26.3130829 28.9069479 26.4373316 29.566129 26.51 30.2641191 26.5105699 30.2746774 26.5108549 30.2855211 26.5108549 30.295794 26.5108549 30.3015012 26.5108549 30.3072084 26.510285 30.3129156 26.510285 30.0515261 25.5393782 29.8101117 24.5647668 29.6631514 23.9572021 29.0105335 23.9962435 28.1184988 24.035285 27.4424814 24.0107772z"/>
      <path fill="#000000"/>
      <path fill="#000000"/>
      <path fill="#FFFFFF" d="M3.56699752 54.7725907L17.5496278 54.7725907C18.6325682 54.7725907 19.6695658 54.2727461 20.3430149 53.4260881 21.016464 52.5788601 21.2690074 51.4569171 21.0238834 50.4036528L19.0814392 42.0624611C19.1111166 42.0162953 19.1393672 41.9675648 19.1676179 41.9165544L26.2094417 40.9120207 24.3226427 50.5250518C23.9431141 52.4554663 25.203263 54.3274611 27.1365757 54.7064767 27.3682878 54.7517876 27.5991439 54.7734456 27.8262903 54.7737306 29.4973573 54.7740155 30.9895037 53.5953627 31.3230893 51.8960622L34.1766873 37.3620984C34.3989826 36.2284715 34.0596898 35.0617876 33.2626799 34.2239637 32.4662407 33.3864249 31.3170968 32.9871762 30.1716625 33.1501813L20.8954715 34.4733161C21.4667618 32.8466839 22.1992804 31.2474093 22.9209553 29.7396114 21.1012159 30.2494301 19.5228908 30.6543782 18.1508809 30.9624352 15.9664516 31.4471762 14.5365136 31.6560622 13.3679653 31.6620466L13.3648263 31.6620466 13.3616873 31.6620466C12.9145285 31.6597668 12.4214268 31.636399 11.841861 31.482513 11.7539702 31.4577202 11.6580893 31.426943 11.5593548 31.3927461 11.2466005 32.9917358 11.0371464 34.7249482 10.8933251 36.7351554 10.8976055 37.6194301 10.9817866 38.3629275 11.1321712 38.9912953 11.1341687 39.2500518 11.1624194 39.5088083 11.2214888 39.7632902L13.0580645 47.6485233 3.56699752 47.6485233C1.59715881 47.6485233 0 49.2429534 0 51.2104145 0 53.1775907 1.59715881 54.7725907 3.56699752 54.7725907zM10.3017742 25.7380052C10.748933 25.2036788 11.2323325 24.7804922 11.6461042 24.4365285 12.4673697 23.7574352 13.49067 23.0298964 14.867531 22.1459067 14.9733995 22.0780829 15.0789826 22.011114 15.1842804 21.9444301 17.1352854 20.7107772 18.9487469 19.7045337 19.3074442 19.5070466 19.7369107 19.272228 20.2103226 19.150829 20.6860174 19.150829 20.8889082 19.150829 21.0866625 19.1784715 21.2804218 19.2195078 22.0834243 19.3904922 22.7865509 19.8954663 23.190335 20.6312694 23.2668114 20.7706218 23.3293052 20.9136788 23.38067 21.0587306 23.7593424 20.9666839 23.9996154 20.9957513 24.0549752 21.1909585 24.22134 21.7788601 23.9899132 22.6845078 23.6255087 23.6052591 23.9522457 23.5092228 24.283263 23.4106218 24.6219851 23.308886 24.889938 23.2285233 25.1670223 23.187487 25.4452481 23.187487 25.515732 23.187487 25.5856452 23.1909067 25.655273 23.1963212 25.993139 23.2216839 26.3175931 23.308601 26.6180769 23.4453886 26.6908437 23.3821244 26.7561911 23.3539119 26.8106948 23.3715803 27.3608685 23.5519689 30.1054591 23.3561917 30.1054591 23.3561917 30.1054591 23.3561917 30.4847022 24.9540415 30.8996154 26.4906218 31.2269231 27.7029016 31.5764888 28.8769948 31.7799504 29.1984456 32.2410918 29.9274093 34.9794045 28.3609067 34.9794045 28.3609067 34.9794045 28.3609067 34.6358313 27.1796891 34.2991067 25.7229016 33.9127295 24.0509585 33.53634 22.0176684 33.6987097 20.9857772 33.7403722 20.7233161 33.8154218 20.5238342 33.935273 20.4138342 34.1130521 20.251399 34.2346154 19.976399 34.3159429 19.6358549L35.7164888 19.6290155 35.7621464 19.6287306 35.7652854 20.2684974 40.6409429 20.0385233 52.9679156 19.4574611 52.9656328 18.9547668 61.919938 18.9134456 61.9122333 17.2682902 52.957928 17.3098964 52.9559305 16.8069171 35.7464516 16.1554663 35.7490199 16.7952332 34.3984119 16.8012176C34.3185112 15.8137824 34.1852481 15.0198446 34.1852481 15.0198446L27.1391439 14.6260104 25.1225062 14.5131606 24.3237841 16.3307254 23.6734491 17.8105959 22.989727 17.8299741 19.5548511 17.9274352 8.29968983 18.2471762C8.29968983 18.2471762 8.1344665 22.0866321 9.15890819 25.8289119 9.25478908 26.1788601 9.4591067 26.4085492 9.75074442 26.5384974 9.94079404 26.1976684 10.1339826 25.9417617 10.3017742 25.7380052z"/>
      <path fill="#FFFFFF" d="M13.3648263,31.0923834 C14.5410794,31.086399 15.9693052,30.8629793 18.0256079,30.4067358 C19.4581141,30.084715 21.1816873,29.6412953 23.2505459,29.0548187 C24.1363027,28.8034715 25.0851241,28.5264767 26.1027171,28.2206995 C27.0412655,27.9388601 27.661067,27.1070207 27.7207072,26.1839896 C27.7378288,25.9201036 27.7115757,25.6490933 27.6308189,25.3809326 C27.4787221,24.8753886 27.1651117,24.4633161 26.7647519,24.1800518 C26.6098015,24.0703368 26.4420099,23.9805699 26.2648015,23.9124611 C26.0359429,23.8241192 25.792531,23.7725389 25.5425558,23.7617098 C25.2937221,23.7511658 25.0391811,23.7788083 24.7874938,23.8543264 C24.41567,23.9660363 24.0572581,24.0723316 23.7048387,24.1760622 C23.5815633,24.2122539 23.4571464,24.2490155 23.3361538,24.2843523 C23.0873201,24.3570207 22.8430521,24.4279793 22.604206,24.496658 C21.4168238,24.838342 20.347866,25.1318653 19.3919107,25.3800777 C19.988598,25.0227202 20.5282134,24.7101036 20.9428412,24.4732902 C21.4701861,24.1726425 21.785794,23.9996632 21.7866501,23.9990933 C22.1353598,23.8081606 22.4135856,23.5394301 22.6130521,23.2268135 C22.8841439,22.8019171 23.0082754,22.2952332 22.9617618,21.790544 C22.9443548,21.6030311 22.9018362,21.4163731 22.8364888,21.2337047 C22.7962531,21.1219948 22.7497395,21.0117098 22.6909553,20.9045596 C22.335397,20.2573834 21.7107444,19.8527202 21.0327295,19.7489896 C20.5541811,19.6757513 20.0490943,19.7509845 19.5919479,20.0014767 L19.5913772,20.0014767 C19.5656948,20.0157254 17.3983871,21.2017876 15.1765757,22.6249482 C14.9919479,22.7434974 14.8076055,22.8637565 14.623263,22.9848705 C13.6958437,23.594715 12.7861166,24.2339119 12.0110794,24.8739637 C11.5439454,25.2632383 11.1244665,25.6439637 10.7426551,26.0996373 C10.6022581,26.2700518 10.465,26.4510104 10.3337345,26.6664508 C10.2866501,26.7436788 10.2404218,26.8248964 10.1950496,26.9120984 C10.1502481,27.0024352 10.1045906,27.1007513 10.0615012,27.2076166 C9.94707196,27.4917358 9.85233251,27.8399741 9.84748139,28.2859585 C9.83863524,28.7815285 10.0155583,29.4007772 10.3588462,29.854171 C10.7754715,30.4055959 11.2600124,30.6748964 11.6777792,30.8299223 C11.7867866,30.8703886 11.8923697,30.9045855 11.9896774,30.931943 C12.4784988,31.0621762 12.9059677,31.0901036 13.3648263,31.0923834 Z"/>
    </g>
    <path fill="#D3000C" d="M51.0456589,16.3265891 C51.0456589,-0.507906977 38.1217442,0.00201550388 38.1217442,0.00201550388 C38.1217442,0.00201550388 25.1978295,-0.507906977 25.1978295,16.3265891 C25.1978295,16.3265891 21.2867442,19.5574419 24.687907,20.7475969 C24.9645349,20.8443411 25.3605814,20.9325194 25.8387597,21.0131395 C26.0831395,18.4217054 27.1322093,16.0625581 28.7320155,14.1851163 C28.7582171,14.2924419 28.7970155,14.3982558 28.8403488,14.5035659 C28.933062,14.7272868 29.0665891,14.9444574 29.2328682,15.1550775 C30.5600775,16.8370155 34.1255039,18.0432946 38.3288372,18.0432946 C42.3215504,18.0432946 45.7474031,16.9564341 47.2182171,15.4060078 C47.4812403,15.1283721 47.6777519,14.836124 47.8082558,14.5327907 C47.8122868,14.5227132 47.8143023,14.5121318 47.8188372,14.5025581 C47.8208527,14.519186 47.8218605,14.535814 47.823876,14.5524419 C49.253876,16.3658915 50.1875581,18.5869767 50.4168217,21.0116279 C50.8899612,20.9310078 51.2824806,20.8438372 51.5565891,20.7475969 C54.9567442,19.5574419 51.0456589,16.3265891 51.0456589,16.3265891 Z"/>
    <path fill="#000000" d="M24.5568992,58.0913566 C24.7906977,58.5927132 25.0506977,59.101124 25.3479845,59.6206202 C25.788876,59.1807364 26.1370543,58.7605039 26.337093,58.3846124 C25.9521318,58.2621705 25.3263178,58.1674419 24.5568992,58.0913566 Z"/>
    <path fill="#D3000C" d="M31.2307364,80.2210853 C30.0914729,79.3468605 29.0116667,78.4771705 27.9857752,77.61 C26.9125194,76.7025194 25.8992248,75.7985659 24.9463953,74.8956202 C24.8244574,74.7802326 24.7065504,74.6643411 24.5866279,74.5489535 C24.6521318,74.8578295 24.756938,75.1515891 24.890969,75.4287209 L19.9927907,122.824806 C19.6390698,126.24814 22.1267054,129.308178 25.549031,129.661395 C28.9708527,130.015116 32.0324031,127.528992 32.3866279,124.105659 L36.8877519,80.543062 C36.1168217,81.0071318 35.2284884,81.2636047 34.2948062,81.2636047 C33.1772093,81.2636047 32.118062,80.9028295 31.2307364,80.2210853 Z"/>
    <path fill="#000000" d="M29.4072093,64.9768217 C29.3905814,64.983876 29.3699225,64.9944574 29.3522868,65.0025194 C30.4940698,66.2596899 31.7895349,67.5329845 33.2336434,68.8198837 C33.3888372,68.2711628 33.5314341,67.7743411 33.6468217,67.3747674 C32.3034884,66.710155 30.3328295,65.6882946 29.4072093,64.9768217 Z"/>
    <path fill="#D3000C" d="M45.7791473 67.9632946L44.8444574 67.4841085 45.3614341 66.5700775 45.4224031 66.4617442 44.7174806 66.0626744C44.3189147 66.3786047 43.9258915 66.5776357 43.5268217 66.6678295 42.6863566 67.0593411 41.0054264 71.2656977 39.5935659 76.3810465 39.4796899 76.7927132 39.3683333 77.2104264 39.2589922 77.6321705L39.723062 77.6321705 44.525 124.105659C44.8792248 127.529496 47.9407752 130.015116 51.3625969 129.661395 54.7849225 129.308178 57.2725581 126.247636 56.9188372 122.824806L51.7551163 72.8564341 51.7551163 71.0177907 51.5545736 70.9155039 45.7791473 67.9632946zM38.3293411 19.4128295C33.9960078 19.4128295 29.6258915 18.0956977 28.916938 15.5753101 27.7675969 17.1751163 27.0243798 19.0848062 26.8384496 21.1567442 26.8087209 21.4943411 26.7900775 21.835969 26.7900775 22.181124 26.7900775 28.4427907 31.866124 33.5183333 38.1277907 33.5183333 44.3889535 33.5183333 49.465 28.4427907 49.465 22.181124 49.465 21.8349612 49.4468605 21.4933333 49.4166279 21.1552326 49.2453101 19.2495736 48.6033721 17.480969 47.6067054 15.9648062 46.5793023 18.2317442 42.4344186 19.4128295 38.3293411 19.4128295zM14.9484884 44.7124419L5.9170155 39.8807752C5.9170155 39.8807752 2.29313953 45.6279845.575930233 52.2700775-.277131783 55.570969 6.54182171 56.3353488 13.5285659 56.6286047 13.2786434 55.3275969 13.1506589 54.0331395 13.1521705 52.7482558 13.1481395 49.5143798 13.9553488 46.8151163 14.9484884 44.7124419z"/>
    <path fill="#D3000C" d="M75.6247287,76.8274806 L73.1043411,75.2558915 L59.7455814,66.9263178 L51.7551163,61.9434884 L49.8207364,60.7372093 L49.6212016,61.0904264 L49.2634496,61.7217829 L47.1874806,60.5462403 C47.3744186,60.1481783 47.5457364,59.7662403 47.6974031,59.4165504 C48.148876,58.3750388 48.425,57.6257752 48.425,57.6257752 L34.9795736,48.9016667 L29.8637209,52.6913178 L24.5004651,49.8222481 L23.8600388,49.4796124 C23.4458527,50.5080233 23.2322093,51.5999225 23.2312016,52.7502713 C23.2337209,54.1238372 23.53,55.5467829 24.1079457,57.0412791 C24.2419767,57.0528682 24.3724806,57.0649612 24.4999612,57.0775581 C26.4474419,57.2700388 27.6345736,57.5955426 27.4808915,58.2132946 C27.3005039,58.938876 26.6933333,59.7319767 25.8831008,60.5139922 C25.8906589,60.5260853 25.8967054,60.5371705 25.9042636,60.5492636 C26.1773643,60.9805814 26.4731395,61.4149225 26.7860465,61.8517829 C27.3483721,62.6353101 27.974186,63.4274031 28.6634884,64.2260465 C29.2243023,63.9337984 29.6410078,63.8113566 29.7896512,63.976124 C30.4734109,64.7354651 34.852093,66.8421705 34.852093,66.8421705 C34.852093,66.8421705 34.5094574,68.0036047 34.0751163,69.5575581 C35.104031,70.4423643 36.1984496,71.3322093 37.3654264,72.2275969 C37.488876,72.3223256 37.6047674,72.4231008 37.716124,72.5268992 C38.35,73.1124031 38.8034884,73.8304264 39.0660078,74.6068992 C39.1481395,74.3287597 39.2332946,74.0455814 39.3219767,73.7573643 C40.4163953,70.1904264 41.9728682,65.9881008 43.3056202,65.6852713 C43.720814,65.5920543 44.1486047,65.276124 44.5728682,64.8241473 L46.795969,66.0828295 L46.2386822,67.0668992 L51.431124,69.7213178 L51.7551163,69.8865891 L73.315969,80.9068605 L73.7538372,80.1334109 L87.514186,87.9218217 L88.9472093,85.3908527 L75.1868605,77.6024419 L75.6247287,76.8274806 Z"/>
    <path fill="#D3000C" d="M16.2918217,44.2871705 C16.1341085,44.5804264 15.9824419,44.8797287 15.8383333,45.1881008 C14.8179845,47.3708915 14.1568992,49.9230233 14.1609302,52.7497674 C14.1594186,54.0170155 14.2934496,55.3265891 14.5685659,56.6689147 C14.6381008,57.0055039 14.7172093,57.3446124 14.8048837,57.6852326 C15.384845,59.9511628 16.3699225,62.3017442 17.8094961,64.6966667 C17.9515891,64.9334884 18.0956977,65.1698062 18.2468605,65.4071318 C18.4332946,65.7003876 18.6277907,65.995155 18.8273256,66.2904264 C20.3193023,68.4923643 22.1912016,70.7426744 24.5004651,73.0489147 C24.6889147,73.2368605 24.8844186,73.4263178 25.0784109,73.6152713 C26.4353488,74.9354264 27.9323643,76.2732171 29.5886047,77.6321705 C30.3111628,78.2252326 31.0624419,78.8213178 31.8449612,79.4224419 C32.5760853,79.9837597 33.4392248,80.2558527 34.2953101,80.2558527 C34.9745349,80.2558527 35.6467054,80.0784884 36.2483333,79.7459302 C36.5269767,79.5917442 36.7884884,79.4032946 37.0293411,79.1805814 C37.1608527,79.0591473 37.285814,78.9281395 37.4027132,78.7860465 C37.4334496,78.7492636 37.4667054,78.7165116 37.4964341,78.6782171 C37.7468605,78.3517054 37.9393411,77.9984884 38.0758915,77.6321705 C38.5424806,76.3805426 38.3545349,74.9671705 37.5770543,73.8798062 C37.3513178,73.5643798 37.0767054,73.2756589 36.7527132,73.0267442 C35.6905426,72.2124806 34.701938,71.4133333 33.7788372,70.6298062 C33.4896124,70.3844186 33.2084496,70.1400388 32.9323256,69.8981783 C31.1899225,68.3684109 29.7080233,66.9026357 28.4553876,65.507907 C28.2241085,65.2499225 28.0003876,64.9949612 27.7842248,64.7425194 C27.2531395,64.1212403 26.7668992,63.5140698 26.325,62.924031 C25.882093,62.3319767 25.4820155,61.7555426 25.1237597,61.1962403 C25.1005814,61.1604651 25.0753876,61.1236822 25.0527132,61.087907 C24.8884496,60.827907 24.7352713,60.5729457 24.5881395,60.3210078 C24.5574031,60.2691085 24.529186,60.2182171 24.4994574,60.1668217 C24.0636047,59.4084884 23.700814,58.6854264 23.4050388,57.9971318 C23.2528682,57.642907 23.1173256,57.2972481 22.997907,56.9611628 C22.4345736,55.3699225 22.2249612,53.9746899 22.221938,52.7497674 C22.2239535,51.3505039 22.5046124,50.1054264 22.965155,49.0009302 C23.0961628,48.6865116 23.2417829,48.3826744 23.4005039,48.0909302 C23.7214729,47.5003876 24.0928295,46.9551938 24.4994574,46.4553488 C24.6299612,46.2951163 24.7639922,46.1399225 24.9010465,45.9882558 L25.8503488,46.4437597 C25.3152326,47.0045736 24.8718217,47.5976357 24.4994574,48.213876 L24.4994574,48.6784496 L29.7755426,51.5011628 L34.3789535,48.0904264 L34.9407752,47.6747287 L35.5277907,48.0556589 L48.9732171,56.7797674 L49.6494186,57.2186434 L49.3697674,57.9744574 C49.3536434,58.0187984 49.0432558,58.8547287 48.5474419,59.9854264 C48.5272868,60.0322868 48.5086434,60.076124 48.4874806,60.1234884 L48.8835271,60.3477132 L48.9092248,60.3013566 L48.9434884,60.2393798 L49.4614729,59.3243411 L50.3538372,59.8806202 L51.7546124,60.7538372 L51.7546124,55.3008915 C53.5594961,58.3135659 55.6344574,61.5172093 57.9578295,64.622093 L73.7936434,74.4965504 C75.0004264,72.7722868 74.680969,70.3859302 73.0161628,69.0491473 C67.331938,64.520814 61.8326357,56.6472481 57.9623643,49.9618217 C56.0153876,46.6191085 54.4473256,43.5721705 53.3750775,41.3752713 C52.8379457,40.2763178 52.4242636,39.39 52.1471318,38.7838372 C52.0090698,38.4805039 51.9052713,38.2482171 51.8367442,38.0935271 C51.7677132,37.939845 51.7420155,37.8763566 51.7410078,37.8763566 C51.2366279,36.7063566 50.2434884,35.8996512 49.1037209,35.5867442 C48.7132171,35.4552326 48.2960078,35.3806589 47.8611628,35.3806589 L28.3934109,35.3806589 C28.0543023,35.3806589 27.7272868,35.4285271 27.413876,35.510155 C26.0136047,35.6834884 24.8803876,36.1752713 23.6418605,36.8197287 C21.5084496,37.9902326 19.2858527,39.8263566 17.4547674,42.4142636 C17.4230233,42.4586047 17.3892636,42.4994186 17.3580233,42.5447674 C16.9791085,43.0904651 16.6223643,43.6729457 16.2918217,44.2871705 Z"/>
  </g>
</svg>

<svg xmlns="http://www.w3.org/2000/svg" width="148" height="130" viewBox="0 0 148 130"><g fill="none" fill-rule="evenodd"><g fill="#FFF"><path d="M102.118 84.67a6.411 6.411 0 0 0 4.16 6.518l-.292-6.141c-1.529-.062-2.805-.187-3.868-.378zm6.239 6.919c.433.01.858-.021 1.271-.094l.972-2.21.16-.362.395.022 2.454.137a6.369 6.369 0 0 0 1.32-4.175c-1.922.088-3.9.165-5.77.182l-.802 6.5z"/><path d="M107.758 91.774l.028-.226.868-7.026c1.966-.006 4.08-.084 6.226-.183l1.031-.049c.471-10.481-9.523-10.856-12.397-7.17-2.347 3.008-2.143 6.81-2.143 6.81.258.064.535.12.82.172 1.24.225 2.713.345 4.34.394l.327 6.877.018.379c-.003.585.88.608.882.022zm13.44 4.092l-.003-.594v-.07h-.24c-.109.078-.217.151-.323.222-.089.164-.192.3-.311.41-.26.368-.034 2.292.507 4.67 1.659-.727 3.38-1.868 5.114-3.503a2.27 2.27 0 0 0 .704-1.392l-4.854.23-.594.027zm-7.756 3.145a2.834 2.834 0 0 1 .844 2.302c.62.124 1.28.197 1.978.198h.049c-.261-.972-.503-1.946-.65-2.554-.652.04-1.545.078-2.22.054z"/><path d="M89.567 129.773h13.983c1.083 0 2.12-.5 2.793-1.347s.926-1.97.68-3.022l-1.942-8.342c.03-.046.058-.094.087-.145l7.041-1.005-1.886 9.613a3.563 3.563 0 0 0 3.503 4.249 3.567 3.567 0 0 0 3.497-2.878l2.854-14.534a3.567 3.567 0 0 0-4.005-4.212l-9.277 1.323c.572-1.626 1.304-3.226 2.026-4.733-1.82.51-3.398.914-4.77 1.222-2.185.485-3.614.694-4.783.7h-.006a5.776 5.776 0 0 1-1.52-.18 5.153 5.153 0 0 1-.283-.09c-.312 1.6-.522 3.333-.666 5.343.005.884.089 1.628.24 2.256.001.26.03.518.088.772l1.837 7.886h-9.491A3.564 3.564 0 0 0 86 126.21a3.565 3.565 0 0 0 3.567 3.563zm6.735-29.035c.447-.534.93-.958 1.344-1.301.821-.68 1.845-1.407 3.222-2.291l.316-.202a85.373 85.373 0 0 1 4.123-2.437c.43-.235.903-.356 1.379-.356.203 0 .4.027.594.069a2.849 2.849 0 0 1 2.1 1.839c.38-.092.62-.063.675.132.166.588-.065 1.494-.43 2.414.327-.096.658-.194.997-.296a2.865 2.865 0 0 1 1.033-.113c.338.026.663.113.963.25.073-.064.138-.092.193-.074.55.18 3.294-.016 3.294-.016s.38 1.598.795 3.135c.327 1.212.676 2.386.88 2.707.461.73 3.2-.837 3.2-.837s-.344-1.181-.68-2.638c-.387-1.672-.764-3.705-.601-4.737.041-.263.116-.462.236-.572.178-.163.3-.438.38-.778l1.401-.007h.046l.003.64 4.876-.23 12.327-.582-.002-.502 8.954-.042-.008-1.645-8.954.042-.002-.503-17.21-.652.003.64-1.35.006c-.08-.987-.214-1.781-.214-1.781l-7.046-.394-2.016-.113-.8 1.818-.65 1.48-.683.019-3.435.097-11.255.32s-.166 3.84.859 7.582c.096.35.3.58.592.71.19-.341.383-.597.55-.801z"/><path d="M99.365 106.092c1.176-.006 2.604-.229 4.66-.685a99.602 99.602 0 0 0 5.226-1.352 192.95 192.95 0 0 0 2.852-.834 2.278 2.278 0 0 0 1.528-2.84 2.267 2.267 0 0 0-1.366-1.469 2.278 2.278 0 0 0-1.478-.058c-.371.112-.73.218-1.082.322l-.369.108-.732.213c-1.187.341-2.256.635-3.212.883.597-.357 1.136-.67 1.55-.907.528-.3.844-.473.845-.474a2.285 2.285 0 0 0 1.175-2.209 2.279 2.279 0 0 0-.126-.556 2.299 2.299 0 0 0-.145-.33 2.278 2.278 0 0 0-1.658-1.155 2.27 2.27 0 0 0-1.441.252c-.026.015-2.194 1.2-4.415 2.624-.185.118-.37.239-.554.36-.927.61-1.837 1.249-2.612 1.889-.467.39-.887.77-1.268 1.226-.14.17-.278.351-.41.566a4.148 4.148 0 0 0-.138.246c-.045.09-.09.189-.133.296a2.9 2.9 0 0 0-.215 1.078 2.67 2.67 0 0 0 .512 1.568c.416.552.901.82 1.319.976.109.04.214.075.312.102.488.13.916.158 1.375.16z"/></g><path fill="#D3000C" d="M51.046 16.327C51.046-.508 38.122.002 38.122.002s-12.924-.51-12.924 16.325c0 0-3.911 3.23-.51 4.42.277.097.673.186 1.15.266a12.292 12.292 0 0 1 2.894-6.828c.026.107.065.213.108.319.093.223.227.44.393.651 1.327 1.682 4.893 2.888 9.096 2.888 3.993 0 7.418-1.087 8.89-2.637a3 3 0 0 0 .59-.873c.003-.01.005-.02.01-.03l.005.05a12.283 12.283 0 0 1 2.593 6.459c.473-.081.865-.168 1.14-.264 3.4-1.19-.511-4.421-.511-4.421z"/><path fill="#000" d="M24.557 58.091c.234.502.494 1.01.791 1.53.44-.44.79-.86.99-1.236-.386-.123-1.012-.218-1.781-.294z"/><path fill="#D3000C" d="M31.23 80.221a88.166 88.166 0 0 1-3.244-2.611 72.035 72.035 0 0 1-3.04-2.714c-.122-.116-.24-.232-.36-.347.066.309.17.603.305.88l-4.898 47.396a6.23 6.23 0 1 0 12.394 1.28l4.5-43.562c-.77.464-1.659.72-2.592.72a4.987 4.987 0 0 1-3.064-1.042z"/><path fill="#000" d="M29.407 64.977l-.055.026a51.759 51.759 0 0 0 3.882 3.817c.155-.549.297-1.046.413-1.445-1.344-.665-3.314-1.687-4.24-2.398z"/><path fill="#D3000C" d="M45.78 67.963l-.936-.479.517-.914.061-.108-.705-.4c-.398.317-.791.516-1.19.606-.84.391-2.522 4.598-3.933 9.713-.114.412-.226.83-.335 1.251h.464l4.802 46.474a6.23 6.23 0 0 0 6.838 5.555 6.229 6.229 0 0 0 5.556-6.836l-5.164-49.969v-1.838l-.2-.102-5.776-2.953zm-7.45-48.55c-4.334 0-8.704-1.317-9.413-3.838a11.274 11.274 0 0 0-2.079 5.582c-.03.337-.048.679-.048 1.024 0 6.262 5.076 11.337 11.338 11.337 6.261 0 11.337-5.075 11.337-11.337 0-.346-.018-.688-.048-1.026a11.266 11.266 0 0 0-1.81-5.19c-1.028 2.267-5.173 3.448-9.278 3.448zm-23.382 25.3L5.917 39.88S2.293 45.628.576 52.27c-.853 3.3 5.966 4.064 12.953 4.358a20.416 20.416 0 0 1-.377-3.88 18.637 18.637 0 0 1 1.796-8.037z"/><path fill="#D3000C" d="M75.625 76.827l-2.52-1.571-13.36-8.33-7.99-4.983-1.934-1.206-.2.353-.358.632-2.076-1.176c.187-.398.359-.78.51-1.13.452-1.041.728-1.79.728-1.79L34.98 48.902l-5.116 3.79-5.364-2.87-.64-.342a8.703 8.703 0 0 0-.629 3.27c.003 1.374.299 2.797.877 4.291l.392.037c1.947.192 3.135.518 2.98 1.135-.18.726-.787 1.519-1.597 2.301l.021.035c.273.432.57.866.882 1.303a33.849 33.849 0 0 0 1.877 2.374c.561-.292.978-.415 1.127-.25.683.76 5.062 2.866 5.062 2.866s-.343 1.162-.777 2.716a75.957 75.957 0 0 0 3.29 2.67c.124.094.24.195.351.299a5.01 5.01 0 0 1 1.35 2.08c.082-.278.167-.561.256-.85 1.094-3.567 2.65-7.769 3.984-8.072.415-.093.843-.409 1.267-.86l2.223 1.258-.557.984 5.192 2.654.324.166 21.561 11.02.438-.774 13.76 7.789 1.433-2.531-13.76-7.789.438-.775z"/><path fill="#D3000C" d="M16.292 44.287a17.736 17.736 0 0 0-2.13 8.463 19.399 19.399 0 0 0 .407 3.919c.07.337.148.676.236 1.016.58 2.266 1.565 4.617 3.004 7.012a31.104 31.104 0 0 0 1.018 1.593c1.492 2.202 3.364 4.453 5.673 6.759.189.188.384.377.578.566a71.45 71.45 0 0 0 4.51 4.017 89.33 89.33 0 0 0 2.257 1.79 4.012 4.012 0 0 0 5.184-.241c.132-.122.257-.253.374-.395.03-.037.064-.07.093-.108a4.03 4.03 0 0 0-.743-5.651 76.74 76.74 0 0 1-3.82-3.129c-1.743-1.53-3.225-2.995-4.478-4.39a44.792 44.792 0 0 1-.67-.765 36.221 36.221 0 0 1-1.46-1.819 29.041 29.041 0 0 1-1.201-1.728c-.023-.036-.049-.072-.071-.108a25.58 25.58 0 0 1-.465-.767l-.089-.154a21.033 21.033 0 0 1-1.094-2.17c-.152-.354-.288-.7-.407-1.036-.563-1.591-.773-2.986-.776-4.211a9.682 9.682 0 0 1 1.179-4.66 10.658 10.658 0 0 1 1.5-2.102l.95.456c-.536.56-.98 1.154-1.352 1.77v.464l5.277 2.823 4.603-3.41.562-.416.587.38 13.445 8.725.676.439-.28.755a39.9 39.9 0 0 1-.822 2.011c-.02.047-.038.091-.06.138l.397.225.025-.047.034-.062.518-.915.893.557 1.4.873V55.3c1.805 3.013 3.88 6.216 6.204 9.321l15.836 9.875a4.027 4.027 0 0 0-.778-5.448c-5.684-4.528-11.183-12.402-15.054-19.087a134.803 134.803 0 0 1-4.587-8.587c-.537-1.099-.95-1.985-1.228-2.591a75.505 75.505 0 0 1-.31-.69c-.07-.154-.095-.218-.096-.218a4.02 4.02 0 0 0-2.637-2.29 3.885 3.885 0 0 0-1.243-.205H28.393c-.339 0-.666.048-.98.13-1.4.172-2.533.664-3.771 1.309-2.134 1.17-4.356 3.006-6.187 5.594-.032.045-.066.085-.097.13a18.07 18.07 0 0 0-1.066 1.743z"/></g></svg>
